icons/llamaindex-light.svg

<svg width="256" height="256" viewBox="0 0 256 256" fill="none" xmlns="http://www.w3.org/2000/svg">
<path d="M196 0H60C26.8629 0 0 26.8629 0 60V196C0 229.137 26.8629 256 60 256H196C229.137 256 256 229.137 256 196V60C256 26.8629 229.137 0 196 0Z" fill="#F4F2ED"/>
<path d="M166.873 184.042C166.34 183.448 165.806 182.854 165.273 182.261C161.515 178.154 159.652 173.412 161.132 167.124C146.904 171.738 133.239 172.782 119.129 169.555C118.759 173.776 118.611 177.634 118.039 181.428C117.339 186.071 116.269 190.658 115.392 195.274C115.086 196.882 114.75 198.502 114.65 200.129C114.351 204.974 114.458 209.866 113.805 214.658C113.47 217.122 111.858 219.414 110.91 221.581H100.346L100.403 221.449C100.968 219.914 101.53 218.38 102.094 216.845L102.066 216.882C102.637 216.309 103.206 215.736 103.777 215.163L103.741 215.2C104.029 214.911 104.317 214.622 104.605 214.333L106.16 214.153C106.311 211.586 106.288 212.529 106.311 211.586C106.424 207.002 106.357 202.406 106.111 197.827C106.02 196.147 105.26 194.502 104.806 192.841C104.491 192.849 104.176 192.857 103.86 192.866C102.176 198.942 100.492 205.02 98.8075 211.096L98.8823 211.064C97.6765 213.249 95.98 217.489 94.7742 219.675C93.2749 219.811 89.0472 219.55 85.5468 219.57C85.8323 216.683 86.9035 215.17 88.7237 213.536C92.6373 210.024 93.6908 204.87 93.6759 199.936C93.6555 193.044 92.7352 186.156 92.1996 179.265C92.9595 177.88 93.3999 176.113 94.5296 175.172C102.175 168.803 108.411 161.193 114.234 153.221C119.87 145.502 125.542 137.799 130.853 129.856C136.703 121.107 142.763 112.374 144.105 101.484C154.012 102.528 163.47 104.941 172.35 109.698C175.063 111.151 178.468 111.314 181.555 112.068C182.7 112.952 184.396 113.599 184.895 114.76C187.41 120.609 189.871 126.508 191.859 132.55C194.305 139.982 194.959 147.604 193.695 155.465C192.18 164.877 188.036 172.978 182.697 180.662C181.81 181.942 181.521 183.637 180.956 185.14L180.976 185.116C180.049 185.771 179.069 186.364 178.206 187.092C175.87 189.062 175.306 192.885 171.59 193.42C171.54 193.218 171.515 193.014 171.519 192.804C171.323 192.435 171.129 192.066 170.933 191.697C169.579 189.145 168.224 186.595 166.87 184.043L166.873 184.042ZM70.3177 74.5659C68.8958 74.5061 67.4236 75.6113 65.9745 76.1782C65.9745 76.1782 64.6478 87.1646 64.6478 92.6932C64.6478 98.2218 66.5387 102.909 66.8595 108.11C67.0879 111.814 67.2687 115.774 68.7042 119.084C70.4278 123.055 71.1769 126.892 70.9621 131.115C70.3667 142.846 76.4499 150.783 85.7738 156.829C89.9675 152.272 94.52 147.993 98.2787 143.102C105.801 133.311 112.226 122.822 115.763 110.834C116.5 108.337 116.985 105.768 117.704 102.735C118.096 102.335 118.899 101.513 119.702 100.69L100.407 100.636C100.123 100.379 99.9249 100.198 99.6408 99.9414L97.1994 76.1306C88.2397 75.58 79.2828 74.9425 70.315 74.5646L70.3177 74.5659ZM90.5126 46.1863C87.2827 39.6667 82.5399 34.6289 75.3542 31.7579C75.24 33.7249 75.1476 35.3004 75.047 37.0431C72.6463 35.3126 70.523 33.7833 67.7811 31.8068C68.1319 35.3385 68.4717 37.803 68.6022 40.2798C68.8591 45.1763 66.7562 47.6354 61.8244 48.3205C60.8633 48.4537 59.8655 48.3205 58.899 48.4333C56.0062 48.7677 54.4606 50.3949 54.0718 53.2768C53.5634 57.0395 55.4869 59.5041 58.5659 61.0021C61.77 62.5613 65.1861 63.6869 69.0943 65.2338C68.522 67.1628 67.9402 69.07 67.3937 70.9867C66.9016 72.7118 66.4489 74.4477 65.9786 76.1795C67.4277 75.6127 68.8985 74.5075 70.3218 74.5673C79.2896 74.9452 88.2465 75.5814 97.2062 76.1333C96.7005 65.7654 95.1793 55.6027 90.5153 46.189L90.5126 46.1863ZM185.413 190.654C185.68 190.933 185.945 191.21 186.211 191.489C186.49 191.769 186.769 192.049 187.047 192.327C187.325 192.594 187.601 192.86 187.878 193.127C188.897 193.805 189.917 194.485 190.935 195.163C191.43 192.505 194.449 188.683 196.975 186.829C198.017 186.063 198.477 184.53 199.284 183.406C199.736 182.778 200.357 182.272 200.902 181.712C200.682 179.939 200.335 178.173 200.267 176.395C200.073 171.294 200.392 166.259 198.794 161.165C196.873 155.048 197.619 148.588 197.975 142.111C203.837 140.932 206.331 137.109 206.66 131.964C207.057 125.749 205.892 119.754 201.999 114.669C199.208 111.024 195.428 108.979 190.738 109.717C187.632 110.205 184.615 111.262 181.558 112.066C182.703 112.949 184.399 113.596 184.898 114.757C187.413 120.607 189.873 126.505 191.862 132.547C194.308 139.979 194.962 147.601 193.697 155.462C192.183 164.875 188.038 172.975 182.7 180.66C181.812 181.939 181.524 183.634 180.959 185.138C182.444 186.977 183.929 188.815 185.415 190.654H185.413ZM133.999 101.044C133.144 112.075 127.89 121.354 122.058 130.321C116.924 138.215 111.761 146.13 105.997 153.562C101.858 158.899 96.7086 163.454 92.0093 168.357C92.0732 171.992 92.1371 175.629 92.2009 179.264C92.9608 177.878 93.4013 176.111 94.5309 175.171C102.176 168.802 108.413 161.192 114.235 153.219C119.871 145.501 125.544 137.797 130.855 129.854C136.704 121.106 142.764 112.373 144.106 101.483C140.737 101.336 137.369 101.191 134 101.044H133.999ZM90.3359 159.958C94.6845 155.166 99.5756 150.752 103.257 145.493C108.946 137.368 114.031 128.791 118.934 120.159C121.716 115.264 123.738 109.931 123.999 104.101C124.046 103.052 125.118 102.05 125.716 101.025C125.224 101.038 124.734 101.052 124.241 101.066C123.611 100.936 122.98 100.806 122.351 100.677C121.468 100.682 120.587 100.686 119.705 100.692C118.902 101.514 118.097 102.337 117.707 102.736C116.988 105.768 116.501 108.338 115.766 110.835C112.229 122.824 105.804 133.313 98.2814 143.103C94.5228 147.994 89.9702 152.273 85.7765 156.83C87.2963 157.873 88.8161 158.915 90.3359 159.959V159.958ZM128.151 101.023C128.477 110.188 124.388 117.974 120.007 125.496C115.775 132.759 111.019 139.734 106.192 146.626C103.352 150.681 99.9603 154.353 96.7549 158.146C95.2459 159.931 93.5916 161.593 92.0025 163.31C92.0052 164.993 92.0066 166.674 92.0093 168.357C96.7086 163.454 101.858 158.899 105.997 153.562C111.761 146.132 116.925 138.216 122.058 130.321C127.89 121.354 133.144 112.075 133.999 101.044C132.05 101.037 130.1 101.03 128.15 101.023H128.151ZM191.091 195.828C191.834 197.349 193.194 198.864 193.204 200.39C193.238 205.8 192.845 211.217 192.501 216.623C192.471 217.102 191.624 217.529 191.157 217.98C190.844 218.214 190.53 218.448 190.217 218.681C189.947 218.97 189.676 219.258 189.406 219.545C189.111 219.804 188.814 220.063 188.519 220.322C188.983 220.844 189.423 221.792 189.913 221.818C192.66 221.964 195.418 221.888 198.296 221.888C200.716 215.979 201.545 210.207 200.651 204.169C200.474 202.973 200.141 201.476 200.657 200.554C204.181 194.268 203.244 188.019 200.902 181.711C200.357 182.271 199.736 182.776 199.284 183.404C198.477 184.529 198.017 186.062 196.975 186.827C194.449 188.681 191.43 192.504 190.935 195.162C190.974 195.386 191.026 195.607 191.091 195.826V195.828ZM125.718 101.023C125.12 102.047 124.047 103.05 124.001 104.1C123.74 109.93 121.717 115.263 118.936 120.158C114.031 128.791 108.947 137.368 103.258 145.491C99.5756 150.751 94.6859 155.163 90.3372 159.956C90.8932 161.074 91.4479 162.191 92.0038 163.309C93.5929 161.59 95.2473 159.929 96.7562 158.144C99.9616 154.353 103.353 150.68 106.193 146.625C111.019 139.733 115.777 132.758 120.008 125.495C124.39 117.972 128.479 110.187 128.152 101.022C127.341 101.022 126.531 101.022 125.719 101.022L125.718 101.023ZM122.351 100.675C122.981 100.805 123.612 100.935 124.241 101.064C123.611 100.935 122.98 100.805 122.351 100.675ZM99.6789 100.289C99.9222 100.405 100.167 100.52 100.41 100.636C100.193 100.466 99.948 100.351 99.6789 100.289ZM165.212 212.958C164.064 213.755 162.917 214.552 161.77 215.348C161.547 216.633 161.324 217.917 161.09 219.263H170.91C170.91 217.28 170.778 215.495 170.956 213.743C171.075 212.579 171.325 211.178 172.055 210.369C178.55 203.167 181.114 194.63 180.979 185.114C180.052 185.77 179.072 186.362 178.209 187.091C175.873 189.061 175.309 192.883 171.593 193.419C171.699 200.662 169.51 207.154 165.213 212.958H165.212Z" fill="url(#paint0_linear_0_1)"/>
<defs>
<linearGradient id="paint0_linear_0_1" x1="30.4065" y1="96.7197" x2="216.75" y2="203.862" gradientUnits="userSpaceOnUse">
<stop stop-color="#F6DDD7"/>
<stop offset="0.25" stop-color="#FCABE6"/>
<stop offset="0.3" stop-color="#F3ADE6"/>
<stop offset="0.38" stop-color="#DDB3E8"/>
<stop offset="0.48" stop-color="#B8BCEC"/>
<stop offset="0.59" stop-color="#85CAF1"/>
<stop offset="0.7" stop-color="#50D8F6"/>
<stop offset="0.76" stop-color="#50D8F6"/>
<stop offset="0.86" stop-color="#B58FE8"/>
</linearGradient>
</defs>
</svg>

<svg xmlns="http://www.w3.org/2000/svg" width="256" height="256" fill="none"><path fill="#F4F2ED" d="M196 0H60C26.863 0 0 26.863 0 60v136c0 33.137 26.863 60 60 60h136c33.137 0 60-26.863 60-60V60c0-33.137-26.863-60-60-60"/><path fill="url(#paint0_linear_0_1)" d="m166.873 184.042-1.6-1.781c-3.758-4.107-5.621-8.849-4.141-15.137-14.228 4.614-27.893 5.658-42.003 2.431-.37 4.221-.518 8.079-1.09 11.873-.7 4.643-1.77 9.23-2.647 13.846-.306 1.608-.642 3.228-.742 4.855-.299 4.845-.192 9.737-.845 14.529-.335 2.464-1.947 4.756-2.895 6.923h-10.564l.057-.132 1.691-4.604-.028.037 1.711-1.719-.036.037.864-.867 1.555-.18c.151-2.567.128-1.624.151-2.567.113-4.584.046-9.18-.2-13.759-.091-1.68-.851-3.325-1.305-4.986l-.946.025-5.052 18.23.074-.032c-1.206 2.185-2.902 6.425-4.108 8.611-1.5.136-5.727-.125-9.227-.105.285-2.887 1.356-4.4 3.177-6.034 3.913-3.512 4.967-8.666 4.952-13.6-.02-6.892-.94-13.78-1.476-20.671.76-1.385 1.2-3.152 2.33-4.093 7.645-6.369 13.881-13.979 19.704-21.951 5.636-7.719 11.308-15.422 16.619-23.365 5.85-8.749 11.91-17.482 13.252-28.372 9.907 1.044 19.365 3.457 28.245 8.214 2.713 1.453 6.118 1.616 9.205 2.37 1.145.884 2.841 1.531 3.34 2.692 2.515 5.849 4.976 11.748 6.964 17.79 2.446 7.432 3.1 15.054 1.836 22.915-1.515 9.412-5.659 17.513-10.998 25.197-.887 1.28-1.176 2.975-1.741 4.478l.02-.024c-.927.655-1.907 1.248-2.77 1.976-2.336 1.97-2.9 5.793-6.616 6.328a2.4 2.4 0 0 1-.071-.616l-.586-1.107-4.063-7.654zM70.318 74.566c-1.422-.06-2.894 1.045-4.343 1.612 0 0-1.327 10.987-1.327 16.515s1.89 10.216 2.212 15.417c.228 3.704.409 7.664 1.844 10.974 1.724 3.971 2.473 7.808 2.258 12.031-.595 11.731 5.488 19.668 14.812 25.714 4.194-4.557 8.746-8.836 12.505-13.727 7.522-9.791 13.947-20.28 17.484-32.268.737-2.497 1.222-5.066 1.941-8.099l1.998-2.045-19.295-.054-.766-.695-2.442-23.81c-8.96-.551-17.916-1.189-26.884-1.566zm20.195-28.38c-3.23-6.52-7.973-11.557-15.159-14.428l-.307 5.285-7.266-5.236c.35 3.532.69 5.996.821 8.473.257 4.896-1.846 7.355-6.778 8.04-.96.134-1.959 0-2.925.113-2.893.335-4.438 1.962-4.827 4.844-.509 3.762 1.415 6.227 4.494 7.725 3.204 1.56 6.62 2.685 10.528 4.232-.572 1.929-1.154 3.836-1.7 5.753-.492 1.725-.945 3.46-1.415 5.193 1.449-.567 2.92-1.673 4.343-1.613 8.968.378 17.924 1.014 26.884 1.566-.505-10.368-2.027-20.53-6.69-29.944zm94.9 144.468.798.835.836.838.831.8 3.057 2.036c.495-2.658 3.514-6.48 6.04-8.334 1.042-.766 1.502-2.299 2.309-3.423.452-.628 1.073-1.134 1.618-1.694-.22-1.773-.567-3.539-.635-5.317-.194-5.101.125-10.136-1.473-15.23-1.921-6.117-1.175-12.577-.819-19.054 5.862-1.179 8.356-5.002 8.685-10.147.397-6.215-.768-12.21-4.661-17.295-2.791-3.645-6.571-5.69-11.261-4.952-3.106.488-6.123 1.545-9.18 2.349 1.145.883 2.841 1.53 3.34 2.691 2.515 5.85 4.975 11.748 6.964 17.79 2.446 7.432 3.1 15.054 1.835 22.915-1.514 9.413-5.659 17.513-10.997 25.198-.888 1.279-1.176 2.974-1.741 4.478l4.456 5.516zm-51.414-89.61c-.855 11.031-6.109 20.31-11.941 29.277-5.134 7.894-10.297 15.809-16.061 23.241-4.139 5.337-9.288 9.892-13.988 14.795l.192 10.907c.76-1.386 1.2-3.153 2.33-4.093 7.645-6.369 13.882-13.979 19.704-21.952 5.636-7.718 11.309-15.422 16.62-23.365 5.849-8.748 11.909-17.481 13.251-28.371L134 101.044zm-43.663 58.914c4.349-4.792 9.24-9.206 12.921-14.465 5.689-8.125 10.774-16.702 15.677-25.334 2.782-4.895 4.804-10.228 5.065-16.058.047-1.049 1.119-2.051 1.717-3.076l-1.475.041-1.89-.389-2.646.015-1.998 2.044c-.719 3.032-1.206 5.602-1.941 8.099-3.537 11.989-9.962 22.478-17.485 32.268-3.758 4.891-8.31 9.17-12.505 13.727l4.56 3.129zm37.815-58.935c.326 9.165-3.763 16.951-8.144 24.473-4.232 7.263-8.988 14.238-13.815 21.13-2.84 4.055-6.232 7.727-9.437 11.52-1.51 1.785-3.163 3.447-4.752 5.164l.006 5.047c4.7-4.903 9.849-9.458 13.988-14.795 5.764-7.43 10.928-15.346 16.061-23.241 5.832-8.967 11.086-18.246 11.941-29.277zm62.94 94.805c.743 1.521 2.103 3.036 2.113 4.562.034 5.41-.359 10.827-.703 16.233-.03.479-.877.906-1.344 1.357l-.94.701-.811.864-.887.777c.464.522.904 1.47 1.394 1.496 2.747.146 5.505.07 8.383.07 2.42-5.909 3.249-11.681 2.355-17.719-.177-1.196-.51-2.693.006-3.615 3.524-6.286 2.587-12.535.245-18.843-.545.56-1.166 1.065-1.618 1.693-.807 1.125-1.267 2.658-2.309 3.423-2.526 1.854-5.545 5.677-6.04 8.335q.058.336.156.664zm-65.373-94.805c-.598 1.024-1.671 2.027-1.717 3.077-.261 5.83-2.284 11.163-5.065 16.058-4.905 8.633-9.989 17.21-15.678 25.333-3.682 5.26-8.572 9.672-12.92 14.465l1.666 3.353c1.589-1.719 3.243-3.38 4.752-5.165 3.206-3.791 6.597-7.464 9.437-11.519 4.826-6.892 9.584-13.867 13.815-21.13 4.382-7.523 8.471-15.308 8.144-24.473zm-26.039-.734.731.347a1.84 1.84 0 0 0-.731-.347m65.533 112.669-3.442 2.39-.68 3.915h9.82c0-1.983-.132-3.768.046-5.52.119-1.164.369-2.565 1.099-3.374 6.495-7.202 9.059-15.739 8.924-25.255-.927.656-1.907 1.248-2.77 1.977-2.336 1.97-2.9 5.792-6.616 6.328.106 7.243-2.083 13.735-6.38 19.539z"/><defs><linearGradient id="paint0_linear_0_1" x1="30.407" x2="216.75" y1="96.72" y2="203.862" gradientUnits="userSpaceOnUse"><stop stop-color="#F6DDD7"/><stop offset=".25" stop-color="#FCABE6"/><stop offset=".3" stop-color="#F3ADE6"/><stop offset=".38" stop-color="#DDB3E8"/><stop offset=".48" stop-color="#B8BCEC"/><stop offset=".59" stop-color="#85CAF1"/><stop offset=".7" stop-color="#50D8F6"/><stop offset=".76" stop-color="#50D8F6"/><stop offset=".86" stop-color="#B58FE8"/></linearGradient></defs></svg>
